X:1283
L:1/8
Q:1/4=90
M:2/4
K:C
 C |[K:C] Mae a Bad ecdag/f/ | ee/f/ dd/e/ | ccc d/e/ | ff/g/ ee/f/ | ddd g/f/ | ee/f/ dd/e/ | 
 ccc d/e/ | f/e/d/c/ B/c/d/B/ | ccc :: e/f/ | gggc' | gggc' | gg a/g/f/e/ | fdd e/f/ | ggga | 
 gggc' | ge/f/ g/f/e/d/ | ccc :|

